public/avatar/body/286.svg

<svg xmlns:xlink="http://www.w3.org/1999/xlink" height="82" width="84.85" xmlns="http://www.w3.org/2000/svg"><g transform="translate(37.4 42.25)"><use height="38" transform="translate(-11.95 -17.45)" width="32.05" xlink:href="#a"/><use height="38.95" transform="translate(-12.45 -17.95)" width="33.05" xlink:href="#b"/><use height="27.15" transform="translate(-15.9 .85)" width="44.7" xlink:href="#c"/></g><defs><path d="M27.35 7.4q2.15 4.15 3.55 8.75 1.45 4.7 1.15 9.5-.35 4.95-4.2 8.1-3.8 3.2-8.75 4.05l-2.6.2q-3.6 0-7.05-1.15-4.65-1.6-7.1-5.5Q-.2 27.4.05 23q.2-4.4 2-9.3Q3.85 8.75 7 5.05 10.1 1.3 14.7.1l1.8-.1q1.9.05 3.7.8 4.75 2.05 7.15 6.6" fill="#fff" fill-rule="evenodd" transform="translate(-.05)" id="d"/><path d="M27.35 7.4Q24.95 2.85 20.2.8 17.55-.3 14.7.1 10.1 1.3 7 5.05q-3.15 3.7-4.95 8.65-1.8 4.9-2 9.3-.25 4.4 2.3 8.35 2.45 3.9 7.1 5.5 4.65 1.55 9.65.95 4.95-.85 8.75-4.05 3.85-3.15 4.2-8.1.3-4.8-1.15-9.5-1.4-4.6-3.55-8.75Z" fill="none" stroke="#000" stroke-linecap="round" stroke-linejoin="round" transform="translate(.45 .5)" id="e"/><use height="38" width="32.05" xlink:href="#d" id="a"/><use height="38.95" width="33.05" xlink:href="#e" id="b"/><g id="c" fill-rule="evenodd"><path d="M21.55 21.7h-1l-.95.05 1.05 2.2 1.4 1.8q.4.7-.15 1.25l-.7.3-.55-.15q-.4-.3-1.6-.5L8.5 24.1l-1.45-.3H6.9l-1.05 1.15q-.9 1.3-.9 2.05l-.4.75-.6.25-.2-.05q-1.15-.3-2.9-1.6l-2.9-1.75-2.55-1.45-.95-.6q-2-1.45-2.85-1.5h-.35q-1.35 0-4.15 1.1l-1.65.65-.35.1q-.35 0-.7-.35-.5-.4-.2-1.05l.5-1.45q.45-1.7 1.05-2.7l.55-.9 1.5-2.2q.3-.35.75-.35l.55.15h.25l.8-.05 2.7.15 2.7.2 6.55.2 6.45.2h.05l6.8-.5 2.4-.25q2.05 0 4.1 1.9 2.55 2.3 6.35 4.25.65.35.5 1.1-.15.75-1 .75h-.15l-3.15-.15-2.9-.15" fill="#020200" transform="translate(15.9 -.85)"/><path d="M21.55 21.2h-.65l-2.15.2 1.45 2.95 1.35 1.8q.25.25-.05.55l-.5.05-2.65-.8-8.9-2.1-2.4-.55H6.9q-.6 0-1.55 1.45-.95 1.4-.95 2.35l-.2.3-.25.1h-.1L0 25.2l-4.3-2.45q-3.5-2.1-4.1-2.15l-.35-.05q-.85 0-6 1.8l-.45-.1-.1-.45q.7-2.7 1.55-4.05l1.95-3.05.6-.05q.15.1.15.4.1-.35.4-.35l.8-.05 5.4.35 13.05.4 6.9-.5 2.3-.25q1.8 0 3.7 1.75 2.55 2.35 6.45 4.3l.25.5-.45.35h-.15l-6.05-.35" fill="#466775" transform="translate(15.9 -.85)"/><path d="M21.2 16.8q2.55 2.25 6.6 4.35l-6.9-.3-2.75.4 1.65 3.4 1.4 1.8-2.75-.8-5.05-1.35-3.85-.8-2.7-.55q-.8.05-1.85 1.6-1 1.5-1.05 2.6L.25 24.9l-4.35-2.4q-3.45-2.25-4.25-2.3-1.3-.05-6.55 1.85.7-2.75 1.5-4l1.95-3 .85.1 6.15.3 10.05.4 9.95-.45 3.05-.2q1.15.25 2.6 1.6" fill="#c1d5e0" transform="translate(15.9 -.85)"/><path d="m20.3 17.2 1.25 1.5q1.2.9 1.3 1.15l-3.2-.9-3.15-.9-1.35-.3q-.85.1-.45 2.25l.6 2.05.7 1.2q-2.25-.9-5-2.4L7.45 19.1q-1.15-.65-1.4-.65-1.15 0-3.35 3.3-.65.95-1.45 3l-.75-.8q-4.45-5.15-5.9-6l-4.1.2-2.85 1.5-1.45-.05 1.1-1.9 1.5-1.85 30.4-.5 1.1 1.85" fill="#8ab0c1" transform="translate(15.9 -.85)"/><path d="m-10.85 16.25 1.75.7q-2.1 1.45-2.75 1.2.1-1.15 1-1.9M3.3 17.6l-1 1.9-1.25 2.15-1.3-1.3Q-2 18-2.6 17.7l5.9-.1m4.9.5 5.2-1.15q-.3 1-.2 2.15l.3 1.55-5.3-2.55m8.6-1.25 2.1-1.1 1.25 2.5-1.6-.55-1.75-.85" fill="#466775" transform="translate(15.9 -.85)"/><path d="M16.95 18.55q1.1.3 1.2.6l-.35.9-.6.8q-.9.45-3.6-1.3l-3.65-1.7 3.7-.55.4.2 2.9 1.05" fill="#020200" transform="translate(15.9 -.85)"/><path d="m18.6 19.5-.95 1.05-2.4-.7q-1.1-.55-2.2-1.15-2-.6-2.55-1.1 1.95-.3 3.4.35l4.7 1.55" fill="#9e9e9e" transform="translate(15.9 -.85)"/><path d="M20.6 19.2q1.1.35 1.25.9l-.3 1.15q-1.2 2-2.45 2.5-.95.35-2.65-2.5-.3-.5.15-1.25l.95-1 3.05.2" fill="#020200" transform="translate(15.9 -.85)"/><path d="m17.7 19.35 1.85.1q1.7.35 1.8.85.15.5-.9 1.7L19 23.25q-.7.25-2.15-2.35-.45-.6.85-1.55" fill="#9e9e9e" transform="translate(15.9 -.85)"/><path d="M21.15 19.95q.65.25-.25 1.55l-1.35 1.35q-.5.5-.75.4l-1.25-1.3.05.05q.6.6.95.6.9-.2 1.4-1.1l.4-1.4-.2-.55 1 .4" fill="#666665" transform="translate(15.9 -.85)"/><path d="M23.35 5.5q.65 1.1-.05 1.6-.3.3-1.7 3.5l-1.55 3.6v.5q.05.5-1.05 1.3l-1.6 1.05-1.5.35q-4.45 1.05-12.15 1.05l-1.9-.1-5.65-.7-6.15-1.25q-1.95-.75-1.65-2.35 0-1.1-3.7-6.95l-.05-.7q.25-1.8 1.25-2.2l.65-.25.05-3.1 1.05 1.35q5.45 4.95 15.8 6.9l6.3.4q6.75 0 9.25-7.55.15-.5.6-.5.55 0 1.25 2.35 1.9.25 2.25 1.15l.25.55" fill="#020200" transform="translate(15.9 -.85)"/><path d="m22.55 5.5.4 1.5q-.4.25-3.45 7.45-.1.7-1.5.8-.3 1-2.25 1.45l-6.7.8q-5.35.4-7.1.15l-10.9-1.7-1.4-.4q-.8-.35-.7-1.05.15-.7-1.8-4.1l-1.95-3.25q-.15-.15.25-1.05l.7-1 .85-.35q.2-.05.15-1.55Q-1.2 10.35 9.8 10.65q2 .1 4.95-1.45 4.35-2.3 4.8-6.75l.85 2.25 2.15.8" fill="#c60537" transform="translate(15.9 -.85)"/><path d="M18.45 7.5q.75-1.35 1-3l.15-1.6.8 2.25h.2q-.35.4-.95 2.45-.55 1.95-1.85 3.05-3.75 3.25-13.4 2.65-2.5-.15-8.35-1.95-5.8-1.8-7-2.75-1.05-.9-2.5-3.2l.5-.2q.2-.05.15-1 11.6 7.75 22.6 7.55 6.35-.1 8.65-4.25" fill="#fff" transform="translate(15.9 -.85)"/><path d="m20.4 11.25.75-.65q-1.2 2.6-1.4 3.9l-1 .9q-1.4.95-3 1.3l-6.7.8q-5.35.4-7.1.15l-10.65-1.5q-2.45-.95-2.35-1.65.1-.55-.85-2.25 7.8 2.85 14.4 2.7l8.8-.25q5.95-.65 9.1-3.45" fill="#fff" transform="translate(15.9 -.85)"/><path d="m18.85 19.65.1.1-.3.2q-.7.3-.75.8-.05.45.2.9l.15.35-.25.05q-.35-.15-.65-.7-.5-.8-.15-1.35.45-.8 1.7-.4l-.05.05" fill="#c6c6c6" transform="translate(15.9 -.85)"/><path d="m17.9 19.7-.05.05-.3 1q-.2.4-.4-.4l.1-.4q.45-.3.65-.25" fill="#e2e0e1" transform="translate(15.9 -.85)"/><path d="m16.85 19.3-.6.55-1.1-.35-2.6-1.2 1.4.4 1.5.6h1.4" fill="#c6c6c6" transform="translate(15.9 -.85)"/><path d="m16.9 5.6 1.9-.4-2.3 3.25-.1.1-.1.05-10.05 2.55-.85.9v.15l.15.7.75 1.5.6 1.1q.6 1.25-.55 2.25l-.3.25-.85 1.1q-1.7 2.35-2.45 2.35l-.35-.05q-.6-.4-1.3-3.45L.75 16.7Q.1 15 1.7 12.05q-.45-.4-.55-1.45L-9.3 6.45l-.05-.15-.35-2.05q-.15-1.5.1-1.8l.1-.2h.25Q-8.95 3.5 1.5 8.3l.05-.05q.5-.5 2.35-.5 2.5 0 2.95.8l.1.25 9.8-4 .4.55-.25.25" fill="#020200" transform="translate(15.9 -.85)"/><path d="m1.15 8.8-.55.75-10.45-4-.2-1.4q0-.95.2-.9l11 5.55m4.75 2.15-.15-.9L16.4 5.6l-.85.85 2-.55-1.55 2-10.1 3.05" fill="#990231" transform="translate(15.9 -.85)"/><path d="M2 11.9q-.55-.15-.55-1.6-.05-1.4.3-1.8.4-.5 2.4-.4 2 .05 2.35.6.35.6-.25 1.75-.55 1.1-1.2 1.4l-3.2.15.15-.1" fill="#990231" transform="translate(15.9 -.85)"/><path d="M2.4 11.35v.2l1.95-.45.8 1.9 1.35 2.65q.5 1.05-.75 2.1-2.4 3.8-3.25 3.35-.4-.25-.9-2.15l-.6-2.4q-.65-1.65 1.4-5.2" fill="#990231" transform="translate(15.9 -.85)"/><path d="m2 11.95 3-.15-.05.6q-1.1 1.45-2 1.15-1.45-.45-.95-1.6M6.75 9.1h.2l1.3-.5-1.15 2.05-1.1.15q.45-.4.75-1.7m-6.7-.4-1.25-.5.35.1 2.4.3.1.05-.4 1.95-.9-.55q-.5-.25-.2-.35l.65-.2q.5-.3-.75-.8" fill="#020200" transform="translate(15.9 -.85)"/><path d="M2.05 8.75q4.65-.6 3.8 1.15-.45.9-1.55 1.6l-2-.05L4 11.2q1.1-.2.9-1.25-.1-.55-1.75-.55-1.7 0-1-.65h-.1m-.1 5.4v.05l.5 1.8q.15.45 1.05 1.35.75.75.4 1.6l-.95 1.2q-.3-.25-.9-2.6-.65-3.05-.1-3.4m7-5.1q.5-.4 3.75-1.45l2.85-.85q-.8.8-4.25 1.85l-2.6.6.25-.15M-9.5 3.6q3.75 1.65 7.1 3.5l-4.8-1.85Q-8.85 4-9.9 3.5l.4.1" fill="#c60537" transform="translate(15.9 -.85)"/><path d="M5.6 14.45q.9 1.1.6 2L4.75 14.4q-.8-1.65-1-.3-.05.45.55 1.6.5 1.05.3 1.6L3.5 15q-.85-1.55-.8-2.1l1.55-.25 1.35 1.8M7.45 9.5q.15.55 1.1.6l-1.8.5q-.15-.45.65-1l.05-.1m-6.05 0q-.1.95 2.8.4l-1.85.5-1.15.15.2-1.05" fill="#020200" transform="translate(15.9 -.85)"/><path d="M3.25 9.05 2.7 8.9l1-.2 1.55.05q.9.3 0 1.35.15-1.05-2-1.05M-7.9 4.75l2.65.8q1.8.55 2.1 1l-.1.05-4.65-1.85M9 8.9q.65-.55 2.25-1.05L14.6 7l-3.3 1.3-2.3.6m-7.25 5.6q.45.15.45 2.3l.45.85q.3.3 1.05.45.15.3-.1.85l-.55.5q-.25-.05-.45-1.35L1.85 16q-.4-.95-.1-1.5" fill="#f73e81" transform="translate(15.9 -.85)"/></g></defs></svg>

<?xml version="1.0" encoding="UTF-8" standalone="no"?>
<svg xmlns:xlink="http://www.w3.org/1999/xlink" height="82.0px" width="84.85px" xmlns="http://www.w3.org/2000/svg">
  <g transform="matrix(1.0, 0.0, 0.0, 1.0, 37.4, 42.25)">
    <use height="38.0" transform="matrix(1.0, 0.0, 0.0, 1.0, -11.95, -17.45)" width="32.05" xlink:href="#sprite0"/>
    <use height="38.95" transform="matrix(1.0, 0.0, 0.0, 1.0, -12.45, -17.95)" width="33.05" xlink:href="#sprite1"/>
    <use height="27.15" transform="matrix(1.0, 0.0, 0.0, 1.0, -15.9, 0.85)" width="44.7" xlink:href="#shape2"/>
  </g>
  <defs>
    <g id="sprite0" transform="matrix(1.0, 0.0, 0.0, 1.0, -0.05, 0.0)">
      <use height="38.0" transform="matrix(1.0, 0.0, 0.0, 1.0, 0.05, 0.0)" width="32.05" xlink:href="#shape0"/>
    </g>
    <g id="shape0" transform="matrix(1.0, 0.0, 0.0, 1.0, -0.05, 0.0)">
      <path d="M27.35 7.4 Q29.5 11.55 30.9 16.15 32.35 20.85 32.05 25.65 31.7 30.6 27.85 33.75 24.05 36.95 19.1 37.8 L16.5 38.0 Q12.9 38.0 9.45 36.85 4.8 35.25 2.35 31.35 -0.2 27.4 0.05 23.0 0.25 18.6 2.05 13.7 3.85 8.75 7.0 5.05 10.1 1.3 14.7 0.1 L16.5 0.0 Q18.4 0.05 20.2 0.8 24.95 2.85 27.35 7.4" fill="#ffffff" fill-rule="evenodd" stroke="none"/>
    </g>
    <g id="sprite1" transform="matrix(1.0, 0.0, 0.0, 1.0, 0.45, 0.5)">
      <use height="38.95" transform="matrix(1.0, 0.0, 0.0, 1.0, -0.45, -0.5)" width="33.05" xlink:href="#shape1"/>
    </g>
    <g id="shape1" transform="matrix(1.0, 0.0, 0.0, 1.0, 0.45, 0.5)">
      <path d="M27.35 7.4 Q24.95 2.85 20.2 0.8 17.55 -0.3 14.7 0.1 10.1 1.3 7.0 5.05 3.85 8.75 2.05 13.7 0.25 18.6 0.05 23.0 -0.2 27.4 2.35 31.35 4.8 35.25 9.45 36.85 14.1 38.4 19.1 37.8 24.05 36.95 27.85 33.75 31.7 30.6 32.05 25.65 32.35 20.85 30.9 16.15 29.5 11.55 27.35 7.4 Z" fill="none" stroke="#000000" stroke-linecap="round" stroke-linejoin="round" stroke-width="1.0"/>
    </g>
    <g id="shape2" transform="matrix(1.0, 0.0, 0.0, 1.0, 15.9, -0.85)">
      <path d="M21.55 21.7 L20.55 21.7 19.6 21.75 20.65 23.95 22.05 25.75 Q22.45 26.45 21.9 27.0 L21.2 27.3 20.65 27.15 Q20.25 26.85 19.05 26.65 L8.5 24.1 7.05 23.8 6.9 23.8 5.85 24.95 Q4.95 26.25 4.95 27.0 L4.55 27.75 3.95 28.0 3.75 27.95 Q2.6 27.65 0.85 26.35 L-2.05 24.6 -4.6 23.15 -5.55 22.55 Q-7.55 21.1 -8.4 21.05 L-8.75 21.05 Q-10.1 21.05 -12.9 22.15 L-14.55 22.8 -14.9 22.9 Q-15.25 22.9 -15.6 22.55 -16.1 22.15 -15.8 21.5 L-15.3 20.05 Q-14.85 18.35 -14.25 17.35 L-13.7 16.45 -12.2 14.25 Q-11.9 13.9 -11.45 13.9 L-10.9 14.05 -10.65 14.05 -9.85 14.0 -7.15 14.15 -4.45 14.35 2.1 14.55 8.55 14.75 8.6 14.75 15.4 14.25 17.8 14.0 Q19.85 14.0 21.9 15.9 24.45 18.2 28.25 20.15 28.9 20.5 28.75 21.25 28.6 22.0 27.75 22.0 L27.6 22.0 24.45 21.85 21.55 21.7" fill="#020200" fill-rule="evenodd" stroke="none"/>
      <path d="M21.55 21.2 L20.9 21.2 18.75 21.4 20.2 24.35 21.55 26.15 Q21.8 26.4 21.5 26.7 L21.0 26.75 18.35 25.95 9.45 23.85 7.05 23.3 6.9 23.3 Q6.3 23.3 5.35 24.75 4.4 26.15 4.4 27.1 L4.2 27.4 3.95 27.5 3.85 27.5 0.0 25.2 -4.3 22.75 Q-7.8 20.65 -8.4 20.6 L-8.75 20.55 Q-9.6 20.55 -14.75 22.35 L-15.2 22.25 -15.3 21.8 Q-14.6 19.1 -13.75 17.75 L-11.8 14.7 -11.2 14.65 Q-11.05 14.75 -11.05 15.05 -10.95 14.7 -10.65 14.7 L-9.85 14.65 -4.45 15.0 8.6 15.4 15.5 14.9 17.8 14.65 Q19.6 14.65 21.5 16.4 24.05 18.75 27.95 20.7 L28.2 21.2 27.75 21.55 27.6 21.55 21.55 21.2" fill="#466775" fill-rule="evenodd" stroke="none"/>
      <path d="M21.2 16.8 Q23.75 19.05 27.8 21.15 L20.9 20.85 18.15 21.25 19.8 24.65 21.2 26.45 18.45 25.65 13.4 24.3 9.55 23.5 6.85 22.95 Q6.05 23.0 5.0 24.55 4.0 26.05 3.95 27.15 L0.25 24.9 -4.1 22.5 Q-7.55 20.25 -8.35 20.2 -9.65 20.15 -14.9 22.05 -14.2 19.3 -13.4 18.05 L-11.45 15.05 -10.6 15.15 -4.45 15.45 5.6 15.85 15.55 15.4 18.6 15.2 Q19.75 15.45 21.2 16.8" fill="#c1d5e0" fill-rule="evenodd" stroke="none"/>
      <path d="M20.3 17.2 L21.55 18.7 Q22.75 19.6 22.85 19.85 L19.65 18.95 16.5 18.05 15.15 17.75 Q14.3 17.85 14.7 20.0 L15.3 22.05 16.0 23.25 Q13.75 22.35 11.0 20.85 L7.45 19.1 Q6.3 18.45 6.05 18.45 4.9 18.45 2.7 21.75 2.05 22.7 1.25 24.75 L0.5 23.95 Q-3.95 18.8 -5.4 17.95 L-9.5 18.15 -12.35 19.65 -13.8 19.6 -12.7 17.7 -11.2 15.85 19.2 15.35 20.3 17.2" fill="#8ab0c1" fill-rule="evenodd" stroke="none"/>
      <path d="M-10.85 16.25 L-9.1 16.95 Q-11.2 18.4 -11.85 18.15 -11.75 17.0 -10.85 16.25" fill="#466775" fill-rule="evenodd" stroke="none"/>
      <path d="M3.3 17.6 L2.3 19.5 1.05 21.65 -0.25 20.35 Q-2.0 18.0 -2.6 17.7 L3.3 17.6" fill="#466775" fill-rule="evenodd" stroke="none"/>
      <path d="M8.2 18.1 L13.4 16.95 Q13.1 17.95 13.2 19.1 L13.5 20.65 8.2 18.1" fill="#466775" fill-rule="evenodd" stroke="none"/>
      <path d="M16.8 16.85 L18.9 15.75 20.15 18.25 18.55 17.7 16.8 16.85" fill="#466775" fill-rule="evenodd" stroke="none"/>
      <path d="M16.95 18.55 Q18.05 18.85 18.15 19.15 L17.8 20.05 17.2 20.85 Q16.3 21.3 13.6 19.55 L9.95 17.85 13.65 17.3 14.05 17.5 16.95 18.55" fill="#020200" fill-rule="evenodd" stroke="none"/>
      <path d="M18.6 19.5 L17.65 20.55 15.25 19.85 Q14.15 19.3 13.05 18.7 11.05 18.1 10.5 17.6 12.45 17.3 13.9 17.95 L18.6 19.5" fill="#9e9e9e" fill-rule="evenodd" stroke="none"/>
      <path d="M20.6 19.2 Q21.7 19.55 21.85 20.1 L21.55 21.25 Q20.35 23.25 19.1 23.75 18.15 24.1 16.45 21.25 16.15 20.75 16.6 20.0 L17.55 19.0 20.6 19.2" fill="#020200" fill-rule="evenodd" stroke="none"/>
      <path d="M17.7 19.35 L19.55 19.45 Q21.25 19.8 21.35 20.3 21.5 20.8 20.45 22.0 L19.0 23.25 Q18.3 23.5 16.85 20.9 16.4 20.3 17.7 19.35" fill="#9e9e9e" fill-rule="evenodd" stroke="none"/>
      <path d="M21.15 19.95 Q21.8 20.2 20.9 21.5 L19.55 22.85 Q19.05 23.35 18.8 23.25 L17.55 21.95 17.6 22.0 Q18.2 22.6 18.55 22.6 19.45 22.4 19.95 21.5 L20.35 20.1 20.15 19.55 21.15 19.95" fill="#666665" fill-rule="evenodd" stroke="none"/>
      <path d="M23.35 5.5 Q24.0 6.6 23.3 7.1 23.0 7.4 21.6 10.6 L20.05 14.2 20.05 14.7 Q20.1 15.2 19.0 16.0 L17.4 17.05 15.9 17.4 Q11.45 18.45 3.75 18.45 L1.85 18.35 -3.8 17.65 -9.95 16.4 Q-11.9 15.65 -11.6 14.05 -11.6 12.95 -15.3 7.1 L-15.35 6.4 Q-15.1 4.6 -14.1 4.2 L-13.45 3.95 -13.4 0.85 -12.35 2.2 Q-6.9 7.15 3.45 9.1 L9.75 9.5 Q16.5 9.5 19.0 1.95 19.15 1.45 19.6 1.45 20.15 1.45 20.85 3.8 22.75 4.05 23.1 4.95 L23.35 5.5" fill="#020200" fill-rule="evenodd" stroke="none"/>
      <path d="M22.55 5.5 L22.95 7.0 Q22.55 7.25 19.5 14.45 19.4 15.15 18.0 15.25 17.7 16.25 15.75 16.7 L9.05 17.5 Q3.7 17.9 1.95 17.65 L-8.95 15.95 -10.35 15.55 Q-11.15 15.2 -11.05 14.5 -10.9 13.8 -12.85 10.4 L-14.8 7.15 Q-14.95 7.0 -14.55 6.1 L-13.85 5.1 -13.0 4.75 Q-12.8 4.7 -12.85 3.2 -1.2 10.35 9.8 10.65 11.8 10.75 14.75 9.2 19.1 6.9 19.55 2.45 L20.4 4.7 22.55 5.5" fill="#c60537" fill-rule="evenodd" stroke="none"/>
      <path d="M18.45 7.5 Q19.2 6.15 19.45 4.5 L19.6 2.9 20.4 5.15 20.6 5.15 Q20.25 5.55 19.65 7.6 19.1 9.55 17.8 10.65 14.05 13.9 4.4 13.3 1.9 13.15 -3.95 11.35 -9.75 9.55 -10.95 8.6 -12.0 7.7 -13.45 5.4 L-12.95 5.2 Q-12.75 5.15 -12.8 4.2 -1.2 11.95 9.8 11.75 16.15 11.65 18.45 7.5" fill="#ffffff" fill-rule="evenodd" stroke="none"/>
      <path d="M20.4 11.25 L21.15 10.6 Q19.95 13.2 19.75 14.5 L18.75 15.4 Q17.35 16.35 15.75 16.7 L9.05 17.5 Q3.7 17.9 1.95 17.65 L-8.7 16.15 Q-11.15 15.2 -11.05 14.5 -10.95 13.95 -11.9 12.25 -4.1 15.1 2.5 14.95 L11.3 14.7 Q17.25 14.05 20.4 11.25" fill="#ffffff" fill-rule="evenodd" stroke="none"/>
      <path d="M18.85 19.65 L18.95 19.75 18.65 19.95 Q17.95 20.25 17.9 20.75 17.85 21.2 18.1 21.65 L18.25 22.0 18.0 22.05 Q17.65 21.9 17.35 21.35 16.85 20.55 17.2 20.0 17.65 19.2 18.9 19.6 L18.85 19.65" fill="#c6c6c6" fill-rule="evenodd" stroke="none"/>
      <path d="M17.9 19.7 L17.85 19.75 17.55 20.75 Q17.35 21.15 17.15 20.35 L17.25 19.95 Q17.7 19.65 17.9 19.7" fill="#e2e0e1" fill-rule="evenodd" stroke="none"/>
      <path d="M16.85 19.3 L16.25 19.85 15.15 19.5 12.55 18.3 13.95 18.7 15.45 19.3 16.85 19.3" fill="#c6c6c6" fill-rule="evenodd" stroke="none"/>
      <path d="M16.9 5.6 L18.8 5.2 16.5 8.45 16.4 8.55 16.3 8.6 6.25 11.15 5.4 12.05 5.4 12.2 5.55 12.9 6.3 14.4 6.9 15.5 Q7.5 16.75 6.35 17.75 L6.05 18.0 5.2 19.1 Q3.5 21.45 2.75 21.45 L2.4 21.4 Q1.8 21.0 1.1 17.95 L0.75 16.7 Q0.1 15.0 1.7 12.05 1.25 11.65 1.15 10.6 L-9.3 6.45 -9.35 6.3 -9.7 4.25 Q-9.85 2.75 -9.6 2.45 L-9.5 2.25 -9.25 2.25 Q-8.95 3.5 1.5 8.3 L1.55 8.25 Q2.05 7.75 3.9 7.75 6.4 7.75 6.85 8.55 L6.95 8.8 16.75 4.8 17.15 5.35 16.9 5.6" fill="#020200" fill-rule="evenodd" stroke="none"/>
      <path d="M1.15 8.8 L0.6 9.55 -9.85 5.55 -10.05 4.15 Q-10.05 3.2 -9.85 3.25 L1.15 8.8" fill="#990231" fill-rule="evenodd" stroke="none"/>
      <path d="M5.9 10.95 L5.75 10.05 16.4 5.6 15.55 6.45 17.55 5.9 16.0 7.9 5.9 10.95" fill="#990231" fill-rule="evenodd" stroke="none"/>
      <path d="M2.0 11.9 Q1.45 11.75 1.45 10.3 1.4 8.9 1.75 8.5 2.15 8.0 4.15 8.1 6.15 8.15 6.5 8.7 6.85 9.3 6.25 10.45 5.7 11.55 5.05 11.85 L1.85 12.0 2.0 11.9" fill="#990231" fill-rule="evenodd" stroke="none"/>
      <path d="M2.4 11.35 L2.4 11.55 4.35 11.1 5.15 13.0 6.5 15.65 Q7.0 16.7 5.75 17.75 3.35 21.55 2.5 21.1 2.1 20.85 1.6 18.95 L1.0 16.55 Q0.35 14.9 2.4 11.35" fill="#990231" fill-rule="evenodd" stroke="none"/>
      <path d="M2.0 11.95 L5.0 11.8 4.95 12.4 Q3.85 13.85 2.95 13.55 1.5 13.1 2.0 11.95" fill="#020200" fill-rule="evenodd" stroke="none"/>
      <path d="M6.75 9.1 L6.95 9.1 8.25 8.6 7.1 10.65 6.0 10.8 Q6.45 10.4 6.75 9.1" fill="#020200" fill-rule="evenodd" stroke="none"/>
      <path d="M0.05 8.7 L-1.2 8.2 -0.85 8.3 1.55 8.6 1.65 8.65 1.25 10.6 0.35 10.05 Q-0.15 9.8 0.15 9.7 L0.8 9.5 Q1.3 9.2 0.05 8.7" fill="#020200" fill-rule="evenodd" stroke="none"/>
      <path d="M2.05 8.75 Q6.7 8.15 5.85 9.9 5.4 10.8 4.3 11.5 L2.3 11.45 4.0 11.2 Q5.1 11.0 4.9 9.95 4.8 9.4 3.15 9.4 1.45 9.4 2.15 8.75 L2.05 8.75" fill="#c60537" fill-rule="evenodd" stroke="none"/>
      <path d="M1.95 14.15 L1.95 14.2 2.45 16.0 Q2.6 16.45 3.5 17.35 4.25 18.1 3.9 18.95 L2.95 20.15 Q2.65 19.9 2.05 17.55 1.4 14.5 1.95 14.15" fill="#c60537" fill-rule="evenodd" stroke="none"/>
      <path d="M8.95 9.05 Q9.45 8.65 12.7 7.6 L15.55 6.75 Q14.75 7.55 11.3 8.6 L8.7 9.2 8.95 9.05" fill="#c60537" fill-rule="evenodd" stroke="none"/>
      <path d="M-9.5 3.6 Q-5.75 5.25 -2.4 7.1 L-7.2 5.25 Q-8.85 4.0 -9.9 3.5 L-9.5 3.6" fill="#c60537" fill-rule="evenodd" stroke="none"/>
      <path d="M5.6 14.45 Q6.5 15.55 6.2 16.45 L4.75 14.4 Q3.95 12.75 3.75 14.1 3.7 14.55 4.3 15.7 4.8 16.75 4.6 17.3 L3.5 15.0 Q2.65 13.45 2.7 12.9 L4.25 12.65 5.6 14.45" fill="#020200" fill-rule="evenodd" stroke="none"/>
      <path d="M7.45 9.5 Q7.6 10.05 8.55 10.1 L6.75 10.6 Q6.6 10.15 7.4 9.6 L7.45 9.5" fill="#020200" fill-rule="evenodd" stroke="none"/>
      <path d="M1.4 9.5 Q1.3 10.45 4.2 9.9 L2.35 10.4 1.2 10.55 1.4 9.5" fill="#020200" fill-rule="evenodd" stroke="none"/>
      <path d="M3.25 9.05 L2.7 8.9 3.7 8.7 5.25 8.75 Q6.15 9.05 5.25 10.1 5.4 9.05 3.25 9.05" fill="#f73e81" fill-rule="evenodd" stroke="none"/>
      <path d="M-7.9 4.75 L-5.25 5.55 Q-3.45 6.1 -3.15 6.55 L-3.25 6.6 -7.9 4.75" fill="#f73e81" fill-rule="evenodd" stroke="none"/>
      <path d="M9.0 8.9 Q9.65 8.35 11.25 7.85 L14.6 7.0 11.3 8.3 9.0 8.9" fill="#f73e81" fill-rule="evenodd" stroke="none"/>
      <path d="M1.75 14.5 Q2.2 14.65 2.2 16.8 L2.65 17.65 Q2.95 17.95 3.7 18.1 3.85 18.4 3.6 18.95 L3.05 19.45 Q2.8 19.4 2.6 18.1 L1.85 16.0 Q1.45 15.05 1.75 14.5" fill="#f73e81" fill-rule="evenodd" stroke="none"/>
    </g>
  </defs>
</svg>
